X: 1283
T: Dan McCarthy's Fancy
R:Reel
N:Collected by Delaney
B:O'Neill's 1283
Z:Transcribed by Trish O'Neil
M:C|
L:1/8
K:A
gf|eA (3AAA egfg|eA (3AAA efdf|eA (3AAA egfa|1gedB A"H"gfg:|2gedB ABcd||
ea {b}(3aga bgag|eaag efg dg|e>a {b}(3aga baga|gedB ABcd|
e>a {b}(3aga bgag|eaag efdf|dega bgaf|gedBA2|]


